X:1
T: The House of Candacraig
C:William Marshall
R:Reel
Q: 232
K:A
M:4/4
L:1/8
A,2 A2 C2 A2|A,2 A2 A2 c2|e3c dc BA|GA Bc B2 c2|A,2 A2 C2 A2|A,2 A2 A2 c2|e3c dc BA|GA BG A4|
A,2 A2 C2 A2|A,2 A2 A2 c2|e3c dc BA|GA Bc B2 c2|A,2 A2 C2 A2|A,2 A2 A2 c2|e3c dc BA|GA BG A4|
A,2 A2 c2 e2|a3b a2 g2|f2 e2 d2 c2|ed cd B4|A,2 A2 c2 e2|a3b a2 c2|d2 b2 c2 a2|E2 G2 A4|
A,2 A2 c2 e2|a3b a2 g2|f2 e2 d2 c2|ed cd B4|C2 D2 E2 C2|D2 F2 B2 d2|c2 A2 G2 B2|E2 G2 A4||
